X:35
T:Dead in the Water
R:reel
C: 1978, 2010 L.E. McCullough  
M:4/4 
L:1/8
K:Edor
|:~e3d BAFE|F~A3 B~A3|~e3e BAFA|AFED ~E3d|
~e3d BAFE|F~A3 B~A3|d~f3 afed|Bdfd ~e3d:|
|:~f3a fede|f~a3 f~e3|~f3a fede|afba f~e3|
~f3a fede|fede f~a3|bafe dfed|BAFD ~E3d:|

